X: 8956
T: Curse Of The Molcolbhin Line, The
R: reel
M: 4/4
K: Edorian
|:"Em" Eeed e2 Ae-|eede gfed|"D" DFAD cdcA|FGAd cAFD|
"Em" EABd e2 de-|eede gfad|"D" DFAD cAGF|1 DFAd"A" cAGF:|2 "A" DGFD"Em" E2 ED||
|:"Em" EBde f2 df-|fdcB fdad|"D" e ^g2 f decA|AcdA"C" A=cBG|
"Em" EBde f2 Bd|ABde fdad|"D" fedf ecdA|"A" EAcA BdcA:|

